icons/op-projects-24.svg

<svg width="24" height="24" viewBox="0 0 24 24" fill="none" xmlns="http://www.w3.org/2000/svg">
<path d="M4 8L12 12L20 8L12 4L4 8ZM12 13.4688L7.0625 11L4 12L12 16L20 12L17.1875 10.9375L12 13.4688ZM12 17.4688L7.0625 15L4 16L12 20L20 16L17.1875 14.9375L12 17.4688Z" fill="black"/>
</svg>

<svg xmlns="http://www.w3.org/2000/svg" width="24" height="24" viewBox="0 0 24 24"><path d="m4 8 8 4 8-4-8-4-8 4Zm8 5.469L7.062 11 4 12l8 4 8-4-2.812-1.062L12 13.469Zm0 4L7.062 15 4 16l8 4 8-4-2.812-1.062L12 17.469Z"/></svg>
